X:1
T:Rosabelle
T:John Wall Callcott (1766-1821)
T:From Sir Walter Scott's "Lay of the Last Minstrel", Canto 6, section XXIII "Harold"
T:Rosabelle
T:Glee
T:Copyright © 
T:Copyright © 
T:Copyright © 
T:Copyright © 
T:Copyright © 
T:Copyright © 
T:Copyright © 
T:Copyright © 
T:Copyright © 
T:Copyright © 
C:John Wall Callcott (1766-1821)
Z:From Sir Walter Scott's
Z:"Lay of the Last Minstrel",
Z:Canto 6, section XXIII "Harold"
Z:Copyright ©
%%score [ 1 2 3 ] { ( 4 6 ) | 5 }
L:1/8
Q:1/8=138
M:2/4
K:Eb
V:1 treble nm="Treble" snm="S."
V:2 treble nm="Treble" snm="S."
V:3 bass nm="Bass" snm="B."
V:4 treble nm="Piano" snm="Pno."
V:6 treble 
V:5 bass 
V:1
!mf!"^Moderately" B | B<G e<B | d2 c2 | c<e dc |{c} B4 |"^cresc." z4 | z B c>d | e3 B | GA/G/ FE | %9
w: O|list- en, list- en|La- dies,|list- en la- dies|||No haugh- ty|feat of|arms _ _ _ we|
 !fermata!B4 |!p! Bc BA | G2 z G | AB AG | F2 z F | G3 !invertedturn!A | B2 e2 | c2 BA | %17
w: tell;|Soft _ is the|note, and|sad _ the _|lay, that|mourns the|love- ly|Ro- sa- *|
{c} B2 z B | ce/d/ df/e/ | e3 A | G2"^dim." F2 | E4 || %22
w: * that|mourns _ _ the _ _|love- ly|Ro- sa-|belle.|
[Q:1/8=160][Q:1/8=160] e2"^with animation" e>e | d2 z d | ee cf | ed z"^dolce" d | e2 f2 | g2 f2 | %28
w: Moor ye the|barge, ye|gal- lant, gal- lant|crew! * and,|gen- tle|La- dye,|
 fe ed | (d2 c2) | z4 | f4- | f4- | f2 f2 | f2 ed | g2 f2 | fe dc | d2 z d | c/B/c/d/ ee | %39
w: deign _ to _|stay! _||Rest|_|* nor|tempt the _|stor- my|firth _ to- *|day, the|storm- * * * * y|
 d/c/d/e/ ff | f4- | f3"^cresc.""^cresc." d | g3 f/e/ | de f e/d/ | d4 | c4 | B3 || %47
w: firth, _ _ _ _ the|firth,|_ nor|tempt the _|storm- * * y _|firth|to-|day.|
!p![Q:1/8=96][Q:1/8=96] B |"^Rather slow" B2 cd | e3 d | c2 BA | G2 z G | G2 AB | c3 B | cd ef | %55
w: O'er|Ros- lin _|all that|drea- ry _|night a|wond'- rous _|blaze was|seen _ to _|
 (!fermata!e2 !fermata!d)d | d4- | d4- | d4 | e3 e | e4- | e4- | e4- | %63
w: gleam; _ to|gleam,|_||* to|gleam,|_||
 e2"^with animation"[Q:1/8=160][Q:1/8=160] .c2 | .B2 .e2 | .d>.c .d>.e | .f2 z .A | .G2 .B2 | %68
w: * 'twas|broad- er|than the watch fire|light, and|bright- er|
 .e>.d .e>.f | .g2 z"^slowly"[Q:1/8=96][Q:1/8=96] g | f4 | e4 | %72
w: than the bright moon-|beam, the|bright|moon-|
"^Rather fast"[Q:1/4=116][Q:1/4=116] d4 || z4 | z4 | z4 | z4 | z4 | z4 | z4 | z4 | z4 | z4 | z4 | %84
w: beam.||||||||||||
"^dolce" d2 c=B | c2 d2 | e2 fe | d2 z2 | g2 fe | d2 ec | =B2 c2 | %91
w: Each one the|ho- ly|vault doth _|hold,|each one the|ho- ly _|vault doth|
 !fermata!d2"^Slowly"!pp![Q:1/8=96][Q:1/8=96] dd | e2 G2 | G>F F2 | c2 A2 | A>G G2 | e2 =A2 | %97
w: hold, But the|sea holds|Ro- sa- belle!|love- ly|Ro- sa- belle!|Love- ly|
 c>B B2 |"^Rather fast" z2[Q:1/4=116][Q:1/4=116] B2 | e2 c2 | B2 z B | e2 c2 | B2 z!f! g | f4 | %104
w: Ro- sa- belle!|And|each Saint|Clair was|bu- ried|there, with|can-|
 d2 z d | d4 | z2 cc | !fermata!B2 z2 | z2"^Moderately" z[Q:1/8=138][Q:1/8=138] G/A/ | Be cA | %110
w: dle, with|book,|and with|knell,|But the|sea _ cave _|
 B>c BG/A/ | Be cA | B>c BB | c2 B2 | A2 G2 | G3 F | F2 !fermata!z!p! B/B/ | Bc BA | G2 z G/G/ | %119
w: rung, _ _ and the|wild * wind _|sung, _ _ The|dirge of|Love- ly|Ro- sa-|belle, but the|sea _ cave _|rung, and the|
 AB AG | F2 z F | !turn!G3 A | B2 e2 | c2 BA |{c} B2 !fermata!z B | ce/d/ df/e/ | e3 A | G4 | %128
w: wild _ wind _|sung, the|dirge of|love- ly|Ro- sa _|_ the|dirge _ _ of _ _|love- ly|Ro-|
"^dim." F4 | E8 |] %130
w: sa-|belle.|
V:2
!mf! G | G<E B<G | B2 A2 | A<c BA |{A} G4 | z4 | z4 | z4 | z4 | z4 |!p! GA GF | E2 z E | FG FE | %13
w: O|list- en, list- en|La- dies,|list- en la- dies|||||||Soft _ is the|note, and|sad _ the _|
 D2 z D | !invertedturn!E3 F | G2 G2 | A2 GF |{A} G2 z2 | z4 | z G GF | E2"^dim." D2 | E4 || %22
w: lay, that|mourns the|love- ly|Ro- sa- *|||the love- ly|Ro- sa-|belle.|
 G2 B>c | B2 z2 | z4 |"^dolce" z2 z B | c2 d2 | e2 d2 | dc cB | (B2 =A2) | d2 c>c | B2 c2 | d2 B2 | %33
w: Moor ye the|barge,||and,|gen- tle|La- dye,|deign _ to _|stay! _|Rest in the|Cas- tle|Ra- vens-|
 A2 c2 | d2 cB | e2 d2 | dc B=A | B2 z B | =A/G/A/B/ cc | B/=A/B/c/ dd | c/B/c/d/ ee | %41
w: heuch, nor|tempt the _|stor- my|firth _ to- *|day, the|storm- * * * * y|firth, _ _ _ _ the|storm _ _ _ _ y|
 d/c/d/e/ fB | e3 d/c/ | Bc d c/B/ | B4 | =A4 | B3 ||!p! G | G3 F | E2 FG | A2 GF | E2 z E | %52
w: firth, _ _ _ _ nor|tempt the _|storm- * * y _|firth|to-|day.|O'er|Ros- lin|all that _|drea- ry _|night a|
 E2 E2 | E3 E | E2 A2 | (!fermata!G2 !fermata!F)F | F4- | F4- | F4- | G3 E | EF GA | Bc _dc | %62
w: wond' rous|blaze was|seen to|gleam; _ to|gleam,|_||* and|bright- * er _|than _ the _|
 e_d cB | c2 .A2 | .G2 .B2 | .B>.A .B>.c | .d2 z .F | .E2 .F2 | .G>.=B .c>.c | .=B2 z _B | A4 | %71
w: bright _ moon- *|beam, 'twas|broad- er|than the watch fire|light, and|bright- er|than the bright moon-|beam, the|bright|
 G4 | F4 || z2 BB | ee B2 | G2 B2 | E4 | F4 | G4 | z4 | z4 | z4 | z4 | z4 |"^dolce" =B2 =AG | %85
w: moon-|beam.|There are|twen- ty of|Ros- lin's|ba-|rons|bold,||||||Each one the|
 =A2 =B2 | c2 dc | =B2 z2 | e2 dc | =B2 c=A | G2 =A2 | !fermata!=B2!pp! _AA | G2 E2 | E>D D2 | %94
w: ho- ly|vault doth _|hold,|each one the|ho- ly _|vault doth|hold, But the|sea holds|Ro- sa- belle!|
 A2 F2 | F>E E2 | G2 F2 | E>D D2 | z2 G2 | G2 A2 | G2 z G | G2 A2 | G2 z!f! e | d4 | B2 z B | B4 | %106
w: love- ly|Ro- sa- belle!|Love- ly|Ro- sa- belle!|And|each Saint|Clair was|bu- ried|there, with|can-|dle, with|book,|
 z2 FF | !fermata!D2 z2 | z2 z E/F/ | G2 AF | G>A GE/F/ | G2 AF | G>A GG | A2 G2 | F2 E2 | E3 D | %116
w: and with|knell,|But the|sea cave _|rung, _ _ and the|wild wind _|sung, _ _ The|dirge of|Love- ly|Ro- sa-|
 D2 !fermata!z!p! G/G/ | GA GF | E2 z E/E/ | FG FE | D2 z D | E3 !turn!F | G2 G2 | A2 GF | %124
w: belle, but the|sea _ cave _|rung, and the|wild _ wind _|sung, the|dirge of|love- ly|Ro- sa _|
{A} G2 !fermata!z z | z4 | z G GF | E4 |"^dim." D4 | E8 |] %130
w: _||of love- ly|Ro-|sa-|belle.|
V:3
!mf! E, | E,<E, E,<E, | E,2 E,2 | E,<E, E,E, | E,4 | z"^cresc." E, F,>G, | A,3 A, | G,3 D, | %8
w: O|list- en, list- en|La- dies,|list- en la- dies|gay!|No haugh- ty|feat of|arms, of|
 E,2 C,2 | !fermata!B,,4 | z4 |!p! E,E,/E,/ E,2 | z4 | B,,B,,/B,,/ B,,B,, | E,3 E, | E,2 E,2 | %16
w: arms we|tell;||Soft is the note,||Soft is the note, that|mourns the|love- ly|
 E,2 E,2 | E,2 z G, | A,2 F,2 | C,3 A,, | B,,2"^dim." B,,2 | E,4 || E,2 G,>=A, | B,2 z B, | %24
w: Ro- sa-|belle, that|mourns the|love- ly|Ro- sa-|belle.|Moor ye the|barge, ye|
 CG, =A,F, |"^dolce" B,2 z B, | B,2 B,2 | =A,2 B,2 | E,2 =E,2 | F,4 | B,2 F,>F, | D,2 F,2 | %32
w: gal- lant, gal- lant|crew! and,|gen- tle|La- dye,|deign to|stay!|Rest in the|Cas- tle|
 B,2 D,2 | F,2 F,2 | B,2 B,2 | E,2 B,2 | E,2 F,2 | B,,2 z B,, | F,3 F, | B,3 B, | %40
w: Ra- vens-|heuch, nor|tempt the|stor- my|firth to-|day, the|storm- y|firth, the|
 =A,/G,/A,/B,/ CC | B,/=A,/B,/C/ D z | z E,/F,/ G,=A, | B,3 E, | F,4 | F,4 | B,,3 ||!p! E, | %48
w: storm- * * * * y|firth, _ _ _ _|nor _ tempt the|storm- y|firth|to-|day.|O'er|
 E,3 D, | C,3 B,, | A,,2 B,,2 | E,2 z E, | E,2 F,G, | A,3 G, | A,2 F,2 | !fermata!B,3 B,, | %56
w: Ros- lin|all that|drea- ry|night a|wond'- rous _|blaze was|seen to|gleam; 'twas|
 B,,C, D,E, | F,G, A,G, | B,A, G,F, | E,2 z G, | G,4- | G,4- | G,4- | A,2 .A,,2 | .E,2 .G,2 | %65
w: broad- * er _|than _ the _|watch _ fire _|light, to|gleam,|_||* 'twas|broad- er|
 .B,>.F, .B,>.B, | .B,2 z .B,, | .E,2 .D,2 | .C,>.G, .C>.A, | .G,2 z E, | D,4 | E,4 | B,,4 || z4 | %74
w: than the watch fire|light, and|bright- er|than the bright moon-|beam, the|bright|moon-|beam.||
 z4 | z4 | z4 | z4 | z2 G,2 | CC G,2 | E,2 G,2 | C,4 | F,4 | G,4 |"^dolce" G,3 G, | G,4 | G,4 | %87
w: ||||Lie|bu- ried with-|in that|proud|cha-|pelle;|Each the|vault|doth|
 G,4- | G,4- | G,4- | G,4- | !fermata!G,2!pp! F,F, | E,2 E,2 | B,,>B,, B,,2 | D,2 D,2 | E,>E, E,2 | %96
w: hold,|_|||* But the|sea holds|Ro- sa- belle!|love- ly|Ro- sa- belle!|
 C,2 F,2 | B,,>B,, B,,2 | z2 E,2 | E,2 E,2 | E,2 z E, | E,2 E,2 | E,2 z!f! E, | B,4 | B,2 z B,, | %105
w: Love- ly|Ro- sa- belle!|And|each Saint|Clair was|bu- ried|there, with|can-|dle, with|
 F,4 | z2 F,F, | !fermata!B,,2 z2 | z2 z E,/E,/ | E,2 E,2 | E,2 z E,/E,/ | E,2 E,2 | E,3 E, | %113
w: book,|and with|knell,|But the|sea cave|rung, and the|wild wind|sung, The|
 D,2 E,2 | A,,2 =A,,2 | B,,3 B,, | B,,2 !fermata!z z | z4 | z!p! E,/E,/ E,E, | B,,2 z2 | %120
w: dirge of|Love- ly|Ro- sa-|belle,||But the sea cave|rung,|
 z B,,/B,,/ B,,B,, | E,E, E,E, | E,2 E,2 | E,2 E,2 | E,2 !fermata!z G, | A,2 F,2 | G,E, C,A,, | %127
w: and the wild wind|sung, the dirge of|love- ly|Ro- sa|belle, the|dirge of|love- ly, love- ly|
 B,,4 |"^dim." B,,4 | [E,,E,]8 |] %130
w: Ro-|sa-|belle.|
V:4
"^Accompaniment added by William Horsley (1774-1858)""^Moderately" [GB] | ([GB]<[EG]) ([Be]<[GB]) | %2
 [Bd]2 [Ac]2 | ([Ac]<[ce]) ([Bd][Ac]) |{A} [GBc] x3 | z4 | z (Bc>d) | e3 B | (GA/G/) (FE) | %9
 !fermata!B4 |!p! ([GB][Ac]) ([GB][FA]) | [EG]2 z [EG] | ([FA][GB]) ([FA][EG]) | [DF]2 z ([DF] | %14
 [EG]3 [FA] | [GB]2 [Ge]2) | [Ac]2 ([GB][FA]) |{A} [GBc] x z B | (ce/d/) (df/e/) | e3 A | G2 F2 | %21
 E4 || [Ge]2"^with animation" [Be]>[ce] | [Bd]2 z d | eecf | ed z d | ([ce]2 [df]2 | [eg]2 [df]2) | %28
 ([df][ce]) ([ce][Bd]) | ([Bd]2 [=Ac]2) | d2 c2 | f4- | f4- | f2 f2 | [df]2 ([ce][Bd]) | %35
 [eg]2 [df]2 | ([df][ce]) ([Bd][=Ac]) | [Bd]2 z [Bd] | ([=Ac]/[GB]/[Ac]/[Bd]/ [ce])[ce] | %39
 ([Bd]/[=Ac]/[Bd]/[ce]/ [df])[df] | f4- | f3 d | [eg]3 ([df]/[ce]/) | ([Bd][ce]) ([df][ce]/[Bd]/) | %44
 [Bd]4 | [=Ac]4 | B3 || B |"^Rather slow" B2 (cd) | e3 d | c2 (BA) | G2 z G | G2 AB | c3 B | %54
 cd (ef) | (!fermata!e2 !fermata!d)d | d4- | d4- | d4 | e3 e | e4- | e4- | e4- | %63
"^with animation" [ce]2 .[Ac]2 | .[GB]2 .[Be]2 | .[Bd]>.[=Ac] .[Bd]>.[ce] | .[df]2 z .[FA] | %67
 .[EG]2 .[FB]2 | .[Ge]>.[=Bd] .[ce]>.[cf] | .[=Bg]2 z"^slowly" [_Bg] | [Af]4 | [Ge]4 | [Fd]4 || %73
 z2 (B2 | e2 B2 | G2 B2 | E4 | F4 | G4) | z4 | z4 | z4 | z4 | z4 | [=Bd]2 ([=Ac][GB]) | %85
 [=Ac]2 [=Bd]2 | [ce]2 ([df][ce]) | [=Bd]2 z2 | [eg]2 ([df][ce]) | [=Bd]2 [ce][=Ac] | %90
 [G=B]2 [=Ac]2 | !fermata![Bd]2"^Slowly" [_Ad][Ad] | [Ge]2 [EG]2 | ([EG]>[DF]) [DF]2 | %94
 [Ac]2 [FA]2 | ([FA]>[EG]) [EG]2 | [ce]2 [F=A]2 | ([Ec]>[DB]) [DB]2 |"^Rather fast" z2 [GB]2 | %99
 ([ce]2 [Ac]2 | [GB]2) z [GB] | [Ge]2 [Ac]2 | [GB]2 z [eg] | [df]4 | [Bd]2 z [Bd] | [Bd]4 | %106
 z2 [Fc][Fc] | !fermata![DB]2 z2 | z2"^Moderately" z ([EG]/[FA]/) | Be (cA) | %110
 ([GB]>[Ac] [GB])([EG]/[FA]/) | Be cA | B>c BB | c2 B2 | A2 G2 | G3 F | [DF]2 !fermata!z [GB] | %117
 ([GB][Ac]) ([GB][FA]) | [EG]2 z [EG] | ([FA][GB]) ([FA][EG]) | [DF]2 z [DF] | ([EG]3 [FA]) | %122
 [GB]2 [Ge]2 | [Ac]2 [GB][FA] |{A} [GBc] x !fermata!z B | (ce/d/) (df/e/) | e3 A | [EG]4 | [DF]4 | %129
 E8 |] %130
V:5
!mf! E, | E,2 E,2 | E,4 | E,2 E,2 | E,4 | z"^cresc." E,F,>G, | A,4 | G,3 D, | E,2 C,2 | %9
 !fermata!B,,4 | z4 | E,2 E,2 | z4 | B,,2 B,,2 | E,4- | E,4- | E,4- | E,2 z G, | A,2 F,2 | %19
 C,3 A,, | B,,2"^dim." B,,2 | E,4 || E,2 G,>=A, | B,2 z B, | CG,=A,F, | B,2 z"^dolce" B, | B,4 | %27
 =A,2 B,2 | E,2 =E,2 | F,4 | B,2 F,2 | D,2 F,2 | B,2 D,2 | F,2 F,2 | B,2 B,2 | E,2 B,2 | E,2 F,2 | %37
 B,,2 z B,, | F,4 | B,4 | =A,/G,/A,/B,/ CC | B,/=A,/B,/C/ D"^cresc." z | z E,/F,/ G,=A, | B,3 E, | %44
 F,4 | F,4 | B,,3 || E, | E,3 D, | C,3 B,, | A,,2 B,,2 | E,2 z E, | E,2 F,G, | A,3 G, | A,2 F,2 | %55
 !fermata!B,3 B,, | B,,C, D,E, | F,G,A,G, | B,A,G,F, | E,2 z G, | G,4- | G,4- | G,4 | A,2 .A,,2 | %64
 .E,2 .G,2 | .B,>.F, .B,2 | .B,2 z .B,, | .E,2 .D,2 | .C,>.G, .C>.A, | .G,2 z E, | D,4 | E,4 | %72
 B,,4 || z4 | z4 | z4 | z4 | z4 | z2 G,2 | C2 G,2 | E,2 G,2 | C,4 | F,4 | G,4 |"^dolce" G,4 | G,4 | %86
 G,4 | G,4- | G,4- | G,4- | G,4- | !fermata!G,2!pp! F,2 | E,4 | B,,4 | D,4 | E,4 | C,2 F,2 | B,,4 | %98
 z2 E,2 | E,4 | E,2 z E, | E,4 | E,2 z!f! E, | B,4- | B,2 z B,, | F,4 | z2 F,2 | !fermata!B,,2 z2 | %108
 z2 z E, | E,4- | E,2 z E, | E,4- | E,4 | D,2 E,2 | A,,2 =A,,2 | B,,4- | B,,2 !fermata!z!p! z | %117
 z4 | z E, E,2 | B,,2 z2 | z B,, B,,2 | E,4- | %122
"^Note: Callcott only explicitly set 5 of the 13 stanzas of Scott’s poem to his music.There is a resulting loss of continuity and of the thread of the poem.Perhaps he contemplated that some or all of the other stanzas might be sung by way of repeats. The third stanza,\"The blackening wave ...\" fits well (with minor alteration to the text) within bars 22 to 46.Other parts of the poem, however, are less easy to set to the music." E,4- | %123
 E,4- | E,2 !fermata!z G, | A,2 F,2 | G,E,C,A,, | B,,4- |"^dim." B,,4 | E,,8 |] %130
V:6
 x | x4 | x4 | x4 | x4 | x4 | x4 | x4 | x4 | x4 | x4 | x4 | x4 | x4 | x4 | x4 | x4 | x4 | z4 | %19
 z GGF | E2 D2 | E4 || x4 | x4 | x4 | x4 | x4 | x4 | x4 | x4 | x4 | B2 c2 | d2 B2 | A2 c2 | x4 | %35
 x4 | x4 | x4 | x4 | x4 | c/B/c/d/ ee | d/c/d/e/ fB | x4 | x4 | x4 | x4 | x3 || G | G3 F | E2 FG | %50
 A2 GF | E2 z E | E4- | E4- | E2 A2 | !fermata!G2 !fermata!FF | F4- | F4- | F4 | G3 E | (EFGA) | %61
 Bc_dc | e_dcB | x4 | x4 | x4 | x4 | x4 | x4 | x4 | x4 | x4 | x4 || x4 | x4 | x4 | x4 | x4 | x4 | %79
 x4 | x4 | x4 | x4 | x4 | x4 | x4 | x4 | x4 | x4 | x4 | x4 | x4 | x4 | x4 | x4 | x4 | x4 | x4 | %98
 x4 | x4 | x4 | x4 | x4 | x4 | x4 | x4 | x4 | x4 | x4 | G2 AF | x4 | G2 AF | G>A G2 | (A2 G2 | %114
 F2 E2) | E3 D | x4 | x4 | x4 | x4 | x4 | x4 | x4 | x4 | x4 | z4 | z G GF | x4 | x4 | x8 |] %130

